X:14
T:Deed Polka
M:2/4
L:1/16
C:Taz Tarry
S:Copyright B. Tarry 26th. April 1997
R:Polka
Q:1/4=100
K:G
|:D2EE D2EE|G2A2B4|cBAG A2B2|A2G2 FED2|
D2EE D2EE|G2A2B4|cBAG A2F2|G4 G4:|
K:D
|:d2ee f2f2|gfed e2a2|gfed e2f2|e2d2 cBA2|
d2ee f2f2|gfed e2a2|gfed e2c2|d4d4:|

